symbols/web/camera/materialsymbolsrounded/camera_wght200grad200_20px.svg

<svg xmlns="http://www.w3.org/2000/svg" height="20" width="20"><path d="M10.333 7.604h5.938q-.604-1.458-1.75-2.562-1.146-1.104-2.709-1.5L9.854 6.833q-.166.25 0 .511.167.26.479.26Zm-3.166.917q.145.25.458.25.313 0 .458-.25l3-5.146v-.01.01q-.229-.042-.552-.062-.323-.021-.531-.021-1.396 0-2.583.51-1.188.51-2.125 1.427ZM3.5 11.688h3.812q.313 0 .438-.261.125-.26-.021-.51L4.812 5.771q-.687.875-1.104 1.958Q3.292 8.812 3.292 10q0 .417.062.854.063.438.146.834Zm4.729 4.77 1.875-3.291q.146-.25.011-.511-.136-.26-.448-.26H3.729q.646 1.5 1.781 2.583 1.136 1.083 2.719 1.479Zm1.771.25q1.417 0 2.604-.51 1.188-.51 2.104-1.427l-1.854-3.292q-.146-.25-.458-.25-.313 0-.458.25l-2.959 5.146q.229.042.511.063.281.02.51.02Zm5.188-2.479q.666-.875 1.093-1.969.427-1.093.427-2.26 0-.438-.052-.865t-.135-.823h-3.813q-.312 0-.437.261-.125.26.021.51ZM10 10Zm-.021 8.167q-1.667 0-3.156-.646-1.49-.646-2.594-1.75-1.104-1.104-1.75-2.594-.646-1.489-.646-3.156 0-1.709.646-3.198.646-1.49 1.75-2.594 1.104-1.104 2.594-1.75 1.489-.646 3.156-.646 1.709 0 3.198.646 1.49.646 2.594 1.75 1.104 1.104 1.75 2.594.646 1.489.646 3.198 0 1.667-.646 3.156-.646 1.49-1.75 2.594-1.104 1.104-2.594 1.75-1.489.646-3.198.646Z"/></svg>

<svg xmlns="http://www.w3.org/2000/svg" height="20" width="20"><path d="M10.333 7.604H16.271Q16.271 7.604 16.271 7.604Q16.271 7.604 16.271 7.604Q15.667 6.146 14.521 5.042Q13.375 3.938 11.812 3.542Q11.812 3.542 11.812 3.542Q11.812 3.542 11.812 3.542L9.854 6.833Q9.688 7.083 9.854 7.344Q10.021 7.604 10.333 7.604ZM7.167 8.521Q7.312 8.771 7.625 8.771Q7.938 8.771 8.083 8.521L11.083 3.375Q11.083 3.354 11.083 3.365Q11.083 3.375 11.083 3.375Q10.854 3.333 10.531 3.313Q10.208 3.292 10 3.292Q8.604 3.292 7.417 3.802Q6.229 4.312 5.292 5.229Q5.292 5.229 5.292 5.229Q5.292 5.229 5.292 5.229ZM3.5 11.688H7.312Q7.625 11.688 7.75 11.427Q7.875 11.167 7.729 10.917L4.812 5.771Q4.812 5.771 4.812 5.771Q4.812 5.771 4.812 5.771Q4.125 6.646 3.708 7.729Q3.292 8.812 3.292 10Q3.292 10.417 3.354 10.854Q3.417 11.292 3.5 11.688Q3.5 11.688 3.5 11.688Q3.5 11.688 3.5 11.688ZM8.229 16.458Q8.229 16.458 8.229 16.458Q8.229 16.458 8.229 16.458L10.104 13.167Q10.25 12.917 10.115 12.656Q9.979 12.396 9.667 12.396H3.729Q3.729 12.396 3.729 12.396Q3.729 12.396 3.729 12.396Q4.375 13.896 5.51 14.979Q6.646 16.062 8.229 16.458ZM10 16.708Q11.417 16.708 12.604 16.198Q13.792 15.688 14.708 14.771Q14.708 14.771 14.708 14.771Q14.708 14.771 14.708 14.771L12.854 11.479Q12.708 11.229 12.396 11.229Q12.083 11.229 11.938 11.479L8.979 16.625Q8.979 16.625 8.979 16.625Q8.979 16.625 8.979 16.625Q9.208 16.667 9.49 16.688Q9.771 16.708 10 16.708ZM15.188 14.229Q15.188 14.229 15.188 14.229Q15.188 14.229 15.188 14.229Q15.854 13.354 16.281 12.26Q16.708 11.167 16.708 10Q16.708 9.562 16.656 9.135Q16.604 8.708 16.521 8.312Q16.521 8.312 16.521 8.312Q16.521 8.312 16.521 8.312H12.708Q12.396 8.312 12.271 8.573Q12.146 8.833 12.292 9.083ZM10 10Q10 10 10 10Q10 10 10 10Q10 10 10 10Q10 10 10 10Q10 10 10 10Q10 10 10 10Q10 10 10 10Q10 10 10 10Q10 10 10 10Q10 10 10 10Q10 10 10 10Q10 10 10 10Q10 10 10 10Q10 10 10 10Q10 10 10 10Q10 10 10 10ZM9.979 18.167Q8.312 18.167 6.823 17.521Q5.333 16.875 4.229 15.771Q3.125 14.667 2.479 13.177Q1.833 11.688 1.833 10.021Q1.833 8.312 2.479 6.823Q3.125 5.333 4.229 4.229Q5.333 3.125 6.823 2.479Q8.312 1.833 9.979 1.833Q11.688 1.833 13.177 2.479Q14.667 3.125 15.771 4.229Q16.875 5.333 17.521 6.823Q18.167 8.312 18.167 10.021Q18.167 11.688 17.521 13.177Q16.875 14.667 15.771 15.771Q14.667 16.875 13.177 17.521Q11.688 18.167 9.979 18.167Z"/></svg>
